icons/ChevronRight.svg

<svg width="24" height="24" viewBox="0 0 24 24" fill="none" xmlns="http://www.w3.org/2000/svg">
<path fill-rule="evenodd" clip-rule="evenodd" d="M14.5303,11.4697c0.2929,0.2929 0.2929,0.7677 0,1.0606l-4,4c-0.2929,0.2929 -0.76774,0.2929 -1.06063,0c-0.29289,-0.2929 -0.29289,-0.7677 0,-1.0606l3.46963,-3.4697l-3.46963,-3.46967c-0.29289,-0.29289 -0.29289,-0.76777 0,-1.06066c0.29289,-0.29289 0.76773,-0.29289 1.06063,0z" fill="#002B51"/>
</svg>

<svg width="24" height="24" viewBox="0 0 24 24" fill="none" xmlns="http://www.w3.org/2000/svg">
<path fill-rule="evenodd" clip-rule="evenodd" d="M14.5303 11.4697C14.8232 11.7626 14.8232 12.2374 14.5303 12.5303L10.5303 16.5303C10.2374 16.8232 9.76256 16.8232 9.46967 16.5303C9.17678 16.2374 9.17678 15.7626 9.46967 15.4697L12.9393 12L9.46967 8.53033C9.17678 8.23744 9.17678 7.76256 9.46967 7.46967C9.76256 7.17678 10.2374 7.17678 10.5303 7.46967L14.5303 11.4697Z" fill="#002B51"/>
</svg>
